icons/Map/subway-fill.svg

<svg viewBox="0 0 24 24" xmlns="http://www.w3.org/2000/svg"><path d="M17.2 20L19 21.5V22H5V21.5L6.8 20H5C3.89543 20 3 19.1046 3 18V7C3 4.79086 4.79086 3 7 3H17C19.2091 3 21 4.79086 21 7V18C21 19.1046 20.1046 20 19 20H17.2ZM11 12V5H7C5.89543 5 5 5.89543 5 7V12H11ZM13 12H19V7C19 5.89543 18.1046 5 17 5H13V12ZM7.5 18C8.32843 18 9 17.3284 9 16.5C9 15.6716 8.32843 15 7.5 15C6.67157 15 6 15.6716 6 16.5C6 17.3284 6.67157 18 7.5 18ZM16.5 18C17.3284 18 18 17.3284 18 16.5C18 15.6716 17.3284 15 16.5 15C15.6716 15 15 15.6716 15 16.5C15 17.3284 15.6716 18 16.5 18Z"/></svg>

<svg xmlns="http://www.w3.org/2000/svg" viewBox="0 0 24 24">
    <g>
        <path fill="none" d="M0 0h24v24H0z"/>
        <path d="M17.2 20l1.8 1.5v.5H5v-.5L6.8 20H5a2 2 0 0 1-2-2V7a4 4 0 0 1 4-4h10a4 4 0 0 1 4 4v11a2 2 0 0 1-2 2h-1.8zM11 12V5H7a2 2 0 0 0-2 2v5h6zm2 0h6V7a2 2 0 0 0-2-2h-4v7zm-5.5 6a1.5 1.5 0 1 0 0-3 1.5 1.5 0 0 0 0 3zm9 0a1.5 1.5 0 1 0 0-3 1.5 1.5 0 0 0 0 3z"/>
    </g>
</svg>
